svg/color/fvt.svg

<?xml version="1.0" encoding="UTF-8" ?>
<!DOCTYPE svg PUBLIC "-//W3C//DTD SVG 1.1//EN" "http://www.w3.org/Graphics/SVG/1.1/DTD/svg11.dtd">
<svg width="250pt" height="250pt" viewBox="0 0 250 250" version="1.1" xmlns="http://www.w3.org/2000/svg">
<g id="#ffffffff">
<path fill="#ffffff" opacity="1.00" d=" M 0.00 0.00 L 119.12 0.00 C 92.14 1.22 65.64 11.46 44.96 28.86 C 18.16 50.88 1.43 84.56 0.00 119.22 L 0.00 0.00 Z" />
<path fill="#ffffff" opacity="1.00" d=" M 131.69 0.00 L 250.00 0.00 L 250.00 116.85 C 249.20 108.81 248.08 100.77 245.96 92.96 C 238.38 63.87 219.80 37.85 194.81 21.16 C 176.21 8.53 154.11 1.29 131.69 0.00 Z" />
<path fill="#ffffff" opacity="1.00" d=" M 0.00 131.56 C 1.80 168.07 20.50 203.30 49.89 225.07 C 69.78 240.11 94.29 248.88 119.20 250.00 L 0.00 250.00 L 0.00 131.56 Z" />
<path fill="#ffffff" opacity="1.00" d=" M 225.12 200.05 C 239.98 180.40 248.61 156.25 250.00 131.68 L 250.00 250.00 L 131.70 250.00 C 168.19 248.15 203.38 229.43 225.12 200.05 Z" />
</g>
<g id="#0e273bff">
<path fill="#0e273b" opacity="1.00" d=" M 119.12 0.00 L 131.69 0.00 C 154.11 1.29 176.21 8.53 194.81 21.16 C 219.80 37.85 238.38 63.87 245.96 92.96 C 248.08 100.77 249.20 108.81 250.00 116.85 L 250.00 131.68 C 248.61 156.25 239.98 180.40 225.12 200.05 C 203.38 229.43 168.19 248.15 131.70 250.00 L 119.20 250.00 C 94.29 248.88 69.78 240.11 49.89 225.07 C 20.50 203.30 1.80 168.07 0.00 131.56 L 0.00 119.22 C 1.43 84.56 18.16 50.88 44.96 28.86 C 65.64 11.46 92.14 1.22 119.12 0.00 M 73.46 73.46 C 73.42 83.24 73.48 93.01 73.43 102.79 C 83.24 102.91 93.05 102.85 102.86 102.82 C 102.97 93.04 102.80 83.24 102.81 73.44 C 93.03 73.47 83.24 73.43 73.46 73.46 M 110.26 73.44 C 110.19 83.24 110.24 93.04 110.23 102.84 C 120.07 103.06 129.91 102.76 139.77 102.83 C 139.76 93.04 139.80 83.24 139.75 73.45 C 129.92 73.44 120.09 73.45 110.26 73.44 M 147.19 73.44 C 147.11 83.24 147.17 93.04 147.16 102.84 C 156.98 102.72 166.77 103.18 176.58 102.79 C 176.51 93.01 176.58 83.24 176.54 73.46 C 166.76 73.42 156.97 73.47 147.19 73.44 M 73.41 110.22 C 73.39 120.07 73.42 129.91 73.40 139.75 C 83.20 139.93 93.00 139.85 102.80 139.80 C 103.48 138.31 103.02 136.59 103.15 135.01 C 103.00 126.76 103.41 118.47 102.95 110.24 C 93.10 110.08 83.25 110.12 73.41 110.22 M 110.19 110.20 C 110.13 120.07 110.12 129.94 110.20 139.80 C 120.06 139.88 129.93 139.86 139.79 139.81 C 139.87 129.94 139.89 120.06 139.78 110.18 C 129.92 110.15 120.06 110.11 110.19 110.20 M 73.50 147.29 C 73.60 157.02 73.53 166.74 73.54 176.46 C 83.26 176.47 92.98 176.40 102.71 176.50 C 102.73 166.75 102.64 157.00 102.75 147.25 C 93.00 147.36 83.25 147.27 73.50 147.29 Z" />
</g>
<g id="#00e0ccff">
<path fill="#00e0cc" opacity="1.00" d=" M 73.46 73.46 C 83.24 73.43 93.03 73.47 102.81 73.44 C 102.80 83.24 102.97 93.04 102.86 102.82 C 93.05 102.85 83.24 102.91 73.43 102.79 C 73.48 93.01 73.42 83.24 73.46 73.46 Z" />
<path fill="#00e0cc" opacity="1.00" d=" M 110.26 73.44 C 120.09 73.45 129.92 73.44 139.75 73.45 C 139.80 83.24 139.76 93.04 139.77 102.83 C 129.91 102.76 120.07 103.06 110.23 102.84 C 110.24 93.04 110.19 83.24 110.26 73.44 Z" />
<path fill="#00e0cc" opacity="1.00" d=" M 147.19 73.44 C 156.97 73.47 166.76 73.42 176.54 73.46 C 176.58 83.24 176.51 93.01 176.58 102.79 C 166.77 103.18 156.98 102.72 147.16 102.84 C 147.17 93.04 147.11 83.24 147.19 73.44 Z" />
</g>
<g id="#0a9bf6ff">
<path fill="#0a9bf6" opacity="1.00" d=" M 73.41 110.22 C 83.25 110.12 93.10 110.08 102.95 110.24 C 103.41 118.47 103.00 126.76 103.15 135.01 C 103.02 136.59 103.48 138.31 102.80 139.80 C 93.00 139.85 83.20 139.93 73.40 139.75 C 73.42 129.91 73.39 120.07 73.41 110.22 Z" />
<path fill="#0a9bf6" opacity="1.00" d=" M 110.19 110.20 C 120.06 110.11 129.92 110.15 139.78 110.18 C 139.89 120.06 139.87 129.94 139.79 139.81 C 129.93 139.86 120.06 139.88 110.20 139.80 C 110.12 129.94 110.13 120.07 110.19 110.20 Z" />
<path fill="#0a9bf6" opacity="1.00" d=" M 73.50 147.29 C 83.25 147.27 93.00 147.36 102.75 147.25 C 102.64 157.00 102.73 166.75 102.71 176.50 C 92.98 176.40 83.26 176.47 73.54 176.46 C 73.53 166.74 73.60 157.02 73.50 147.29 Z" />
</g>
</svg>

<?xml version="1.0" encoding="utf-8"?>
<!-- Generator: Adobe Illustrator 26.0.3, SVG Export Plug-In . SVG Version: 6.00 Build 0)  -->
<svg version="1.1" id="Layer_1" xmlns="http://www.w3.org/2000/svg" xmlns:xlink="http://www.w3.org/1999/xlink" x="0px" y="0px"
	 viewBox="0 0 250 250" style="enable-background:new 0 0 250 250;" xml:space="preserve">
<style type="text/css">
	.st0{fill:#0E273B;}
	.st1{fill:#00E0CC;}
	.st2{fill:#0A9BF6;}
</style>
<g id="_x23_0e273bff">
	<path class="st0" d="M119.1,0h12.6c22.4,1.3,44.5,8.5,63.1,21.2c25,16.7,43.6,42.7,51.2,71.8c2.1,7.8,3.2,15.8,4,23.9v14.8
		c-1.4,24.6-10,48.7-24.9,68.4c-21.7,29.4-56.9,48.1-93.4,49.9h-12.5c-24.9-1.1-49.4-9.9-69.3-24.9c-29.4-21.8-48.1-57-49.9-93.5
		v-12.3c1.4-34.7,18.2-68.3,45-90.4C65.6,11.5,92.1,1.2,119.1,0 M73.5,73.5c0,9.8,0,19.6,0,29.3c9.8,0.1,19.6,0.1,29.4,0
		c0.1-9.8-0.1-19.6-0.1-29.4C93,73.5,83.2,73.4,73.5,73.5 M110.3,73.4c-0.1,9.8,0,19.6,0,29.4c9.8,0.2,19.7-0.1,29.5,0
		c0-9.8,0-19.6,0-29.4C129.9,73.4,120.1,73.4,110.3,73.4 M147.2,73.4c-0.1,9.8,0,19.6,0,29.4c9.8-0.1,19.6,0.3,29.4,0
		c-0.1-9.8,0-19.6,0-29.3C166.8,73.4,157,73.5,147.2,73.4 M73.4,110.2c0,9.8,0,19.7,0,29.5c9.8,0.2,19.6,0.1,29.4,0.1
		c0.7-1.5,0.2-3.2,0.3-4.8c-0.2-8.2,0.3-16.5-0.2-24.8C93.1,110.1,83.2,110.1,73.4,110.2 M110.2,110.2c-0.1,9.9-0.1,19.7,0,29.6
		c9.9,0.1,19.7,0.1,29.6,0c0.1-9.9,0.1-19.8,0-29.6C129.9,110.2,120.1,110.1,110.2,110.2 M73.5,147.3c0.1,9.7,0,19.5,0,29.2
		c9.7,0,19.4-0.1,29.2,0c0-9.8-0.1-19.5,0-29.2C93,147.4,83.2,147.3,73.5,147.3z"/>
</g>
<g id="_x23_00e0ccff">
	<path class="st1" d="M73.5,73.5c9.8,0,19.6,0,29.3,0c0,9.8,0.2,19.6,0.1,29.4c-9.8,0-19.6,0.1-29.4,0C73.5,93,73.4,83.2,73.5,73.5z
		"/>
	<path class="st1" d="M110.3,73.4c9.8,0,19.7,0,29.5,0c0.1,9.8,0,19.6,0,29.4c-9.9-0.1-19.7,0.2-29.5,0
		C110.2,93,110.2,83.2,110.3,73.4z"/>
	<path class="st1" d="M147.2,73.4c9.8,0,19.6,0,29.3,0c0,9.8,0,19.6,0,29.3c-9.8,0.4-19.6-0.1-29.4,0
		C147.2,93,147.1,83.2,147.2,73.4z"/>
</g>
<g id="_x23_0a9bf6ff">
	<path class="st2" d="M73.4,110.2c9.8-0.1,19.7-0.1,29.5,0c0.5,8.2,0.1,16.5,0.2,24.8c-0.1,1.6,0.3,3.3-0.3,4.8
		c-9.8,0.1-19.6,0.1-29.4-0.1C73.4,129.9,73.4,120.1,73.4,110.2z"/>
	<path class="st2" d="M110.2,110.2c9.9-0.1,19.7,0,29.6,0c0.1,9.9,0.1,19.8,0,29.6c-9.9,0.1-19.7,0.1-29.6,0
		C110.1,129.9,110.1,120.1,110.2,110.2z"/>
	<path class="st2" d="M73.5,147.3c9.8,0,19.5,0.1,29.2,0c-0.1,9.8,0,19.5,0,29.2c-9.7-0.1-19.4,0-29.2,0
		C73.5,166.7,73.6,157,73.5,147.3z"/>
</g>
</svg>
